Shapes/5289.svg

<?xml version="1.0" encoding="UTF-8" standalone="no"?>
<svg xmlns:xlink="http://www.w3.org/1999/xlink" height="206.0px" width="722.95px" xmlns="http://www.w3.org/2000/svg">
  <g transform="matrix(1.0, 0.0, 0.0, 1.0, 1.0, -322.0)">
    <path d="M720.0 528.0 L0.0 528.0 0.0 384.0 720.0 384.0 720.0 528.0 M715.0 523.0 L715.0 389.0 5.0 389.0 5.0 523.0 715.0 523.0 5.0 523.0 5.0 389.0 715.0 389.0 715.0 523.0" fill="url(#gradient0)" fill-rule="evenodd" stroke="none"/>
    <path d="M715.0 523.0 L5.0 523.0 5.0 389.0 715.0 389.0 715.0 523.0 Z" fill="none" stroke="#d0c18e" stroke-linecap="round" stroke-linejoin="round" stroke-width="1.0"/>
    <path d="M720.0 323.0 L720.0 384.0 0.0 384.0 0.0 344.0 574.95 344.0 595.95 323.0 720.0 323.0" fill="#180e0a" fill-opacity="0.7019608" fill-rule="evenodd" stroke="none"/>
    <path d="M720.0 323.0 L720.95 323.0 M720.0 384.0 L0.0 384.0 M0.0 344.0 L574.95 344.0 595.95 323.0 720.0 323.0 Z" fill="none" stroke="#493425" stroke-linecap="round" stroke-linejoin="round" stroke-width="2.0"/>
  </g>
  <defs>
    <linearGradient gradientTransform="matrix(0.0, -0.0879, 0.011, 0.0, -190.1, 455.75)" gradientUnits="userSpaceOnUse" id="gradient0" spreadMethod="pad" x1="-819.2" x2="819.2">
      <stop offset="0.0" stop-color="#180e0a" stop-opacity="0.9019608"/>
      <stop offset="1.0" stop-color="#6f5c35" stop-opacity="0.9529412"/>
    </linearGradient>
  </defs>
</svg>

<?xml version="1.0" encoding="utf-8"?>
<!-- Generator: Adobe Illustrator 23.0.6, SVG Export Plug-In . SVG Version: 6.00 Build 0)  -->
<svg version="1.1" id="Layer_1" xmlns="http://www.w3.org/2000/svg" xmlns:xlink="http://www.w3.org/1999/xlink" x="0px" y="0px"
	 viewBox="0 0 723 206" style="enable-background:new 0 0 723 206;" xml:space="preserve">
<style type="text/css">
	.st0{fill-rule:evenodd;clip-rule:evenodd;fill:url(#SVGID_1_);}
	.st1{fill:none;stroke:#D0C18E;stroke-linecap:round;stroke-linejoin:round;}
	.st2{fill-rule:evenodd;clip-rule:evenodd;fill:#180E0A;fill-opacity:0.702;}
	.st3{fill:none;stroke:#493425;stroke-width:2;stroke-linecap:round;stroke-linejoin:round;}
</style>
<g transform="matrix(1.0, 0.0, 0.0, 1.0, 1.0, -322.0)">
	
		<linearGradient id="SVGID_1_" gradientUnits="userSpaceOnUse" x1="-5739.8384" y1="-74343.8203" x2="-4101.6133" y2="-74343.8203" gradientTransform="matrix(0 -8.790000e-02 -1.100000e-02 0 -457.782 23.2259)">
		<stop  offset="0" style="stop-color:#180E0A;stop-opacity:0.902"/>
		<stop  offset="1" style="stop-color:#6F5C35;stop-opacity:0.9529"/>
	</linearGradient>
	<path class="st0" d="M720,528H0V384h720V528 M715,523V389H5v134H715H5V389h710V523"/>
	<path class="st1" d="M715,523H5V389h710V523z"/>
	<path class="st2" d="M720,323v61H0v-40h575l21-21H720"/>
	<path class="st3" d="M720,323h1 M720,384H0 M0,344h575l21-21h124"/>
</g>
</svg>
